X: 1
T: Munster Hop, The
M: 4/4
L: 1/8
R: reel
K: Gmaj
|: d3e dBGA | B2A2 A2Bc | d3e dBAd | B2G2 G2ge |
d2ge dBGA | B2A2 A2ED | CEAB AGAB | A2G2 G4 :|
|: b4 bagb | a2g2 g3g | e2ge dega | b2a2 a2ga |
b4 bagb | a2g2 g3g | e2ge dBAd | B2G2 G4 :|
